svgs/sharp-solid/refrigerator.svg

<svg xmlns="http://www.w3.org/2000/svg" viewBox="0 0 384 512"><!--! Font Awesome Pro 6.6.0 by @fontawesome - https://fontawesome.com License - https://fontawesome.com/license (Commercial License) Copyright 2024 Fonticons, Inc. --><path d="M384 0L0 0 0 160l288 0 0-48 0-16 32 0 0 16 0 48 64 0L384 0zm0 192l-64 0 0 176 0 16-32 0 0-16 0-176L0 192 0 512l384 0 0-320z"/></svg>

<svg xmlns="http://www.w3.org/2000/svg" viewBox="0 0 384 512"><!--! Font Awesome Pro 6.4.0 by @fontawesome - https://fontawesome.com License - https://fontawesome.com/license (Commercial License) Copyright 2023 Fonticons, Inc. --><path d="M384 0H0V160H288V112 96h32v16 48h64V0zm0 192H320V368v16H288V368 192H0V512H384V192z"/></svg>
